X: 32506
T: Planxty Burke
R: waltz
M: 3/4
K: Gdorian
|:GAB/c/ d2 c|Bcd cAF|FAF fAF|FAF cAF|
G/A/BG dBG|GBG gBG|f2 f fga|1 f3 d3:|2 f3 d2 f/g/||
|:agf gfe|fed cde|fed gfe|fed cAF|
G/A/BG dBG|GBG dBG|f2 f fga|1 f3 d2 f/g/:|2 f3 d3||
|:d/e/ff fg/f/e|fg/f/e/d/ cAF|g2 g ga/g/f|gde f2 g|
agf edc|d/e/fd cAF|f2 c d/e/fd|B3 G3:|

